hunting/misc/compass.svg

<svg xmlns="http://www.w3.org/2000/svg" viewBox="0 0 512 512">
  <path d="M 275.61290322580646 275.61290322580646 L 236.38709677419354 236.38709677419354 L 275.61290322580646 275.61290322580646 L 236.38709677419354 236.38709677419354 L 163.09677419354838 348.9032258064516 L 275.61290322580646 275.61290322580646 Z M 256 0 Q 184.7741935483871 1.032258064516129 126.96774193548387 35.096774193548384 L 126.96774193548387 35.096774193548384 L 126.96774193548387 35.096774193548384 Q 69.16129032258064 69.16129032258064 35.096774193548384 126.96774193548387 L 35.096774193548384 126.96774193548387 L 35.096774193548384 126.96774193548387 Q 1.032258064516129 184.7741935483871 0 256 Q 1.032258064516129 327.2258064516129 35.096774193548384 385.03225806451616 Q 69.16129032258064 442.83870967741933 126.96774193548387 476.9032258064516 Q 184.7741935483871 510.96774193548384 256 512 Q 327.2258064516129 510.96774193548384 385.03225806451616 476.9032258064516 Q 442.83870967741933 442.83870967741933 476.9032258064516 385.03225806451616 Q 510.96774193548384 327.2258064516129 512 256 Q 510.96774193548384 184.7741935483871 476.9032258064516 126.96774193548387 Q 442.83870967741933 69.16129032258064 385.03225806451616 35.096774193548384 Q 327.2258064516129 1.032258064516129 256 0 L 256 0 Z M 417.03225806451616 180.6451612903226 L 432.51612903225805 174.4516129032258 L 417.03225806451616 180.6451612903226 L 432.51612903225805 174.4516129032258 Q 435.61290322580646 172.38709677419354 438.7096774193548 174.4516129032258 Q 441.80645161290323 175.48387096774192 442.83870967741933 178.58064516129033 L 442.83870967741933 178.58064516129033 L 442.83870967741933 178.58064516129033 Q 443.8709677419355 181.67741935483872 442.83870967741933 184.7741935483871 Q 441.80645161290323 187.8709677419355 438.7096774193548 188.90322580645162 L 423.2258064516129 196.1290322580645 L 423.2258064516129 196.1290322580645 Q 416 198.19354838709677 412.9032258064516 190.96774193548387 L 412.9032258064516 190.96774193548387 L 412.9032258064516 190.96774193548387 Q 409.80645161290323 183.74193548387098 417.03225806451616 180.6451612903226 L 417.03225806451616 180.6451612903226 Z M 315.8709677419355 88.7741935483871 L 323.0967741935484 73.29032258064517 L 315.8709677419355 88.7741935483871 L 323.0967741935484 73.29032258064517 Q 326.19354838709677 67.09677419354838 333.4193548387097 69.16129032258064 L 333.4193548387097 69.16129032258064 L 333.4193548387097 69.16129032258064 Q 339.61290322580646 72.25806451612904 337.5483870967742 79.48387096774194 L 331.35483870967744 94.96774193548387 L 331.35483870967744 94.96774193548387 Q 328.258064516129 102.19354838709677 321.03225806451616 99.09677419354838 L 321.03225806451616 99.09677419354838 L 321.03225806451616 99.09677419354838 Q 317.93548387096774 98.06451612903226 315.8709677419355 94.96774193548387 Q 314.83870967741933 91.87096774193549 315.8709677419355 88.7741935483871 L 315.8709677419355 88.7741935483871 Z M 256 53.67741935483871 L 256 53.67741935483871 L 256 53.67741935483871 L 256 53.67741935483871 Q 263.2258064516129 54.70967741935484 264.258064516129 61.935483870967744 L 264.258064516129 78.45161290322581 L 264.258064516129 78.45161290322581 Q 263.2258064516129 85.6774193548387 256 86.70967741935483 L 256 86.70967741935483 L 256 86.70967741935483 Q 248.7741935483871 85.6774193548387 247.74193548387098 78.45161290322581 L 247.74193548387098 61.935483870967744 L 247.74193548387098 61.935483870967744 Q 248.7741935483871 54.70967741935484 256 53.67741935483871 L 256 53.67741935483871 Z M 178.58064516129033 69.16129032258064 Q 181.67741935483872 68.12903225806451 184.7741935483871 69.16129032258064 Q 187.8709677419355 70.19354838709677 188.90322580645162 73.29032258064517 L 196.1290322580645 88.7741935483871 L 196.1290322580645 88.7741935483871 Q 197.16129032258064 92.90322580645162 195.09677419354838 97.03225806451613 Q 192 101.16129032258064 186.83870967741936 100.12903225806451 Q 182.70967741935485 99.09677419354838 180.6451612903226 94.96774193548387 L 174.4516129032258 79.48387096774194 L 174.4516129032258 79.48387096774194 Q 172.38709677419354 72.25806451612904 178.58064516129033 69.16129032258064 L 178.58064516129033 69.16129032258064 Z M 112.51612903225806 112.51612903225806 L 112.51612903225806 112.51612903225806 L 112.51612903225806 112.51612903225806 L 112.51612903225806 112.51612903225806 Q 118.70967741935483 108.38709677419355 124.90322580645162 112.51612903225806 L 136.25806451612902 124.90322580645162 L 136.25806451612902 124.90322580645162 Q 141.41935483870967 130.06451612903226 136.25806451612902 136.25806451612902 L 136.25806451612902 136.25806451612902 L 136.25806451612902 136.25806451612902 Q 130.06451612903226 141.41935483870967 124.90322580645162 136.25806451612902 L 112.51612903225806 124.90322580645162 L 112.51612903225806 124.90322580645162 Q 108.38709677419355 118.70967741935483 112.51612903225806 112.51612903225806 L 112.51612903225806 112.51612903225806 Z M 53.67741935483871 256 L 53.67741935483871 256 L 53.67741935483871 256 L 53.67741935483871 256 Q 54.70967741935484 248.7741935483871 61.935483870967744 247.74193548387098 L 78.45161290322581 247.74193548387098 L 78.45161290322581 247.74193548387098 Q 85.6774193548387 248.7741935483871 86.70967741935483 256 L 86.70967741935483 256 L 86.70967741935483 256 Q 85.6774193548387 263.2258064516129 78.45161290322581 264.258064516129 L 61.935483870967744 264.258064516129 L 61.935483870967744 264.258064516129 Q 54.70967741935484 263.2258064516129 53.67741935483871 256 L 53.67741935483871 256 Z M 94.96774193548387 331.35483870967744 L 79.48387096774194 337.5483870967742 L 94.96774193548387 331.35483870967744 L 79.48387096774194 337.5483870967742 Q 76.38709677419355 339.61290322580646 73.29032258064517 337.5483870967742 Q 70.19354838709677 336.51612903225805 69.16129032258064 333.4193548387097 L 69.16129032258064 333.4193548387097 L 69.16129032258064 333.4193548387097 Q 68.12903225806451 330.3225806451613 69.16129032258064 327.2258064516129 Q 70.19354838709677 324.1290322580645 73.29032258064517 323.0967741935484 L 88.7741935483871 315.8709677419355 L 88.7741935483871 315.8709677419355 Q 96 313.80645161290323 99.09677419354838 321.03225806451616 L 99.09677419354838 321.03225806451616 L 99.09677419354838 321.03225806451616 Q 102.19354838709677 328.258064516129 94.96774193548387 331.35483870967744 L 94.96774193548387 331.35483870967744 Z M 99.09677419354838 190.96774193548387 L 99.09677419354838 190.96774193548387 L 99.09677419354838 190.96774193548387 L 99.09677419354838 190.96774193548387 Q 98.06451612903226 194.06451612903226 94.96774193548387 196.1290322580645 Q 91.87096774193549 197.16129032258064 88.7741935483871 196.1290322580645 L 73.29032258064517 188.90322580645162 L 73.29032258064517 188.90322580645162 Q 67.09677419354838 185.80645161290323 69.16129032258064 178.58064516129033 L 69.16129032258064 178.58064516129033 L 69.16129032258064 178.58064516129033 Q 72.25806451612904 172.38709677419354 79.48387096774194 174.4516129032258 L 94.96774193548387 180.6451612903226 L 94.96774193548387 180.6451612903226 Q 102.19354838709677 183.74193548387098 99.09677419354838 190.96774193548387 L 99.09677419354838 190.96774193548387 Z M 196.1290322580645 423.2258064516129 L 188.90322580645162 438.7096774193548 L 196.1290322580645 423.2258064516129 L 188.90322580645162 438.7096774193548 Q 185.80645161290323 444.9032258064516 178.58064516129033 442.83870967741933 Q 171.3548387096774 439.741935483871 174.4516129032258 432.51612903225805 L 180.6451612903226 417.03225806451616 L 180.6451612903226 417.03225806451616 Q 182.70967741935485 412.9032258064516 186.83870967741936 411.8709677419355 Q 192 410.83870967741933 195.09677419354838 414.96774193548384 Q 197.16129032258064 419.0967741935484 196.1290322580645 423.2258064516129 L 196.1290322580645 423.2258064516129 Z M 264.258064516129 450.06451612903226 Q 263.2258064516129 457.2903225806452 256 458.3225806451613 L 256 458.3225806451613 L 256 458.3225806451613 Q 248.7741935483871 457.2903225806452 247.74193548387098 450.06451612903226 L 247.74193548387098 433.5483870967742 L 247.74193548387098 433.5483870967742 Q 248.7741935483871 426.3225806451613 256 425.2903225806452 L 256 425.2903225806452 L 256 425.2903225806452 Q 263.2258064516129 426.3225806451613 264.258064516129 433.5483870967742 L 264.258064516129 450.06451612903226 Z M 333.4193548387097 442.83870967741933 L 333.4193548387097 442.83870967741933 L 333.4193548387097 442.83870967741933 L 333.4193548387097 442.83870967741933 Q 330.3225806451613 443.8709677419355 327.2258064516129 442.83870967741933 Q 324.1290322580645 441.80645161290323 323.0967741935484 438.7096774193548 L 315.8709677419355 423.2258064516129 L 315.8709677419355 423.2258064516129 Q 313.80645161290323 416 321.03225806451616 412.9032258064516 L 321.03225806451616 412.9032258064516 L 321.03225806451616 412.9032258064516 Q 328.258064516129 409.80645161290323 331.35483870967744 417.03225806451616 L 337.5483870967742 432.51612903225805 L 337.5483870967742 432.51612903225805 Q 339.61290322580646 439.741935483871 333.4193548387097 442.83870967741933 L 333.4193548387097 442.83870967741933 Z M 399.48387096774195 399.48387096774195 L 399.48387096774195 399.48387096774195 L 399.48387096774195 399.48387096774195 L 399.48387096774195 399.48387096774195 Q 393.2903225806452 403.61290322580646 387.0967741935484 399.48387096774195 L 375.741935483871 387.0967741935484 L 375.741935483871 387.0967741935484 Q 370.5806451612903 381.93548387096774 375.741935483871 375.741935483871 L 375.741935483871 375.741935483871 L 375.741935483871 375.741935483871 Q 381.93548387096774 370.5806451612903 387.0967741935484 375.741935483871 L 399.48387096774195 387.0967741935484 L 399.48387096774195 387.0967741935484 Q 403.61290322580646 393.2903225806452 399.48387096774195 399.48387096774195 L 399.48387096774195 399.48387096774195 Z M 286.96774193548384 286.96774193548384 L 105.29032258064517 406.7096774193548 L 286.96774193548384 286.96774193548384 L 105.29032258064517 406.7096774193548 L 225.03225806451613 225.03225806451613 L 225.03225806451613 225.03225806451613 L 406.7096774193548 105.29032258064517 L 286.96774193548384 286.96774193548384 Z M 442.83870967741933 333.4193548387097 L 442.83870967741933 333.4193548387097 L 442.83870967741933 333.4193548387097 L 442.83870967741933 333.4193548387097 Q 439.741935483871 339.61290322580646 432.51612903225805 337.5483870967742 L 417.03225806451616 331.35483870967744 L 417.03225806451616 331.35483870967744 Q 409.80645161290323 328.258064516129 412.9032258064516 321.03225806451616 L 412.9032258064516 321.03225806451616 L 412.9032258064516 321.03225806451616 Q 413.93548387096774 317.93548387096774 417.03225806451616 315.8709677419355 Q 420.1290322580645 314.83870967741933 423.2258064516129 315.8709677419355 L 438.7096774193548 323.0967741935484 L 438.7096774193548 323.0967741935484 Q 444.9032258064516 326.19354838709677 442.83870967741933 333.4193548387097 L 442.83870967741933 333.4193548387097 Z M 450.06451612903226 264.258064516129 L 433.5483870967742 264.258064516129 L 450.06451612903226 264.258064516129 L 433.5483870967742 264.258064516129 Q 426.3225806451613 263.2258064516129 425.2903225806452 256 L 425.2903225806452 256 L 425.2903225806452 256 Q 426.3225806451613 248.7741935483871 433.5483870967742 247.74193548387098 L 450.06451612903226 247.74193548387098 L 450.06451612903226 247.74193548387098 Q 457.2903225806452 248.7741935483871 458.3225806451613 256 L 458.3225806451613 256 L 458.3225806451613 256 Q 457.2903225806452 263.2258064516129 450.06451612903226 264.258064516129 L 450.06451612903226 264.258064516129 Z" />
</svg>

<?xml version="1.0" encoding="UTF-8"?>
<svg viewBox="0 0 512 512" xmlns="http://www.w3.org/2000/svg">
 <path d="m275.61 275.61-39.226-39.226 39.226 39.226-39.226-39.226-73.29 112.52 112.52-73.29zm-19.613-275.61q-71.226 1.0323-129.03 35.097-57.806 34.065-91.871 91.871-34.065 57.806-35.097 129.03 1.0323 71.226 35.097 129.03 34.065 57.806 91.871 91.871 57.806 34.065 129.03 35.097 71.226-1.0323 129.03-35.097 57.806-34.065 91.871-91.871 34.065-57.806 35.097-129.03-1.0323-71.226-35.097-129.03-34.065-57.806-91.871-91.871-57.806-34.065-129.03-35.097zm161.03 180.65 15.484-6.1935-15.484 6.1935 15.484-6.1935q3.0968-2.0645 6.1935 0 3.0968 1.0323 4.129 4.129 1.0323 3.0968 0 6.1935-1.0323 3.0968-4.129 4.129l-15.484 7.2258q-7.2258 2.0645-10.323-5.1613-3.0968-7.2258 4.129-10.323zm-101.16-91.871 7.2258-15.484-7.2258 15.484 7.2258-15.484q3.0968-6.1935 10.323-4.129 6.1935 3.0968 4.129 10.323l-6.1935 15.484q-3.0968 7.2258-10.323 4.129-3.0968-1.0323-5.1613-4.129-1.0323-3.0968 0-6.1935zm-59.871-35.097q7.2258 1.0323 8.2581 8.2581v16.516q-1.0323 7.2258-8.2581 8.2581-7.2258-1.0323-8.2581-8.2581v-16.516q1.0323-7.2258 8.2581-8.2581zm-77.419 15.484q3.0968-1.0323 6.1935 0 3.0968 1.0323 4.129 4.129l7.2258 15.484q1.0323 4.129-1.0323 8.2581-3.0968 4.129-8.2581 3.0968-4.129-1.0323-6.1935-5.1613l-6.1935-15.484q-2.0645-7.2258 4.129-10.323zm-66.065 43.355q6.1935-4.129 12.387 0l11.355 12.387q5.1613 5.1613 0 11.355-6.1935 5.1613-11.355 0l-12.387-11.355q-4.129-6.1935 0-12.387zm-58.839 143.48q1.0323-7.2258 8.2581-8.2581h16.516q7.2258 1.0323 8.2581 8.2581-1.0323 7.2258-8.2581 8.2581h-16.516q-7.2258-1.0323-8.2581-8.2581zm41.29 75.355-15.484 6.1935 15.484-6.1935-15.484 6.1935q-3.0968 2.0645-6.1935 0-3.0968-1.0323-4.129-4.129-1.0323-3.0968 0-6.1935t4.129-4.129l15.484-7.2258q7.2258-2.0645 10.323 5.1613 3.0968 7.2258-4.129 10.323zm4.129-140.39q-1.0323 3.0968-4.129 5.1613-3.0968 1.0323-6.1935 0l-15.484-7.2258q-6.1935-3.0968-4.129-10.323 3.0968-6.1935 10.323-4.129l15.484 6.1935q7.2258 3.0968 4.129 10.323zm97.032 232.26-7.2258 15.484 7.2258-15.484-7.2258 15.484q-3.0968 6.1935-10.323 4.129-7.2258-3.0968-4.129-10.323l6.1935-15.484q2.0645-4.129 6.1935-5.1613 5.1613-1.0323 8.2581 3.0968 2.0645 4.129 1.0323 8.2581zm68.129 26.839q-1.0323 7.2258-8.2581 8.2581-7.2258-1.0323-8.2581-8.2581v-16.516q1.0323-7.2258 8.2581-8.2581 7.2258 1.0323 8.2581 8.2581v16.516zm69.161-7.2258q-3.0968 1.0323-6.1935 0-3.0968-1.0323-4.129-4.129l-7.2258-15.484q-2.0645-7.2258 5.1613-10.323 7.2258-3.0968 10.323 4.129l6.1935 15.484q2.0645 7.2258-4.129 10.323zm66.065-43.355q-6.1935 4.129-12.387 0l-11.355-12.387q-5.1613-5.1613 0-11.355 6.1935-5.1613 11.355 0l12.387 11.355q4.129 6.1935 0 12.387zm-112.52-112.52-181.68 119.74 181.68-119.74-181.68 119.74 119.74-181.68 181.68-119.74-119.74 181.68zm155.87 46.452q-3.0968 6.1935-10.323 4.129l-15.484-6.1935q-7.2258-3.0968-4.129-10.323 1.0323-3.0968 4.129-5.1613 3.0968-1.0323 6.1935 0l15.484 7.2258q6.1935 3.0968 4.129 10.323zm7.2258-69.161h-16.516 16.516-16.516q-7.2258-1.0323-8.2581-8.2581 1.0323-7.2258 8.2581-8.2581h16.516q7.2258 1.0323 8.2581 8.2581-1.0323 7.2258-8.2581 8.2581z"/>
</svg>
